realistic/transparent/doodads/tree_simple.svg

<?xml version="1.0" encoding="UTF-8" standalone="no"?>
<svg
   width="256"
   height="320"
   viewBox="0 0 256 320"
   version="1.1"
   id="SVGRoot"
   sodipodi:docname="tree_simple.svg"
   inkscape:version="1.1-dev (cef4a25b16, 2020-10-10)"
   xmlns:inkscape="http://www.inkscape.org/namespaces/inkscape"
   xmlns:sodipodi="http://sodipodi.sourceforge.net/DTD/sodipodi-0.dtd"
   xmlns="http://www.w3.org/2000/svg"
   xmlns:svg="http://www.w3.org/2000/svg">
  <defs
     id="defs823" />
  <sodipodi:namedview
     id="base"
     pagecolor="#ffffff"
     bordercolor="#666666"
     borderopacity="1.0"
     inkscape:pageopacity="0.0"
     inkscape:pageshadow="2"
     inkscape:zoom="2.8"
     inkscape:cx="128.75"
     inkscape:cy="318.39286"
     inkscape:document-units="px"
     inkscape:current-layer="g843"
     showgrid="true"
     inkscape:window-width="1920"
     inkscape:window-height="2105"
     inkscape:window-x="1920"
     inkscape:window-y="27"
     inkscape:window-maximized="0"
     inkscape:snap-page="true"
     showguides="true"
     inkscape:guide-bbox="true"
     inkscape:snap-smooth-nodes="true"
     inkscape:snap-global="false"
     inkscape:snap-grids="true"
     inkscape:snap-to-guides="true">
    <inkscape:grid
       type="xygrid"
       id="grid831"
       spacingx="64"
       spacingy="64"
       dotted="false"
       color="#3f3fff"
       opacity="0.30196078"
       empcolor="#ff3f3f"
       empopacity="0.25098039"
       empspacing="10"
       enabled="true" />
    <sodipodi:guide
       position="108.00000,320"
       orientation="1,0"
       id="guide834" />
    <sodipodi:guide
       position="130.00000,320"
       orientation="1,0"
       id="guide836" />
    <sodipodi:guide
       position="124.00000,320"
       orientation="1,0"
       id="guide869" />
  </sodipodi:namedview>
  <g
     inkscape:label="Layer 1"
     inkscape:groupmode="layer"
     id="layer1"
     transform="translate(-561.65265,-8.2244186)">
    <g
       id="g855">
      <g
         id="g843">
        <g
           id="g857">
          <path
             id="path939"
             style="fill:#8fb45b;fill-opacity:1;fill-rule:evenodd;stroke:none;stroke-width:0.935057;stroke-miterlimit:4;stroke-dasharray:none"
             d="m 736.24673,48.908621 a 60.838136,60.326093 0 0 0 -47.73072,22.943603 20.873311,20.59162 0 0 0 -19.77665,-14.311462 20.873311,20.59162 0 0 0 -19.99078,15.01297 60.838136,60.326093 0 0 0 -2.21462,-0.04281 60.838136,60.326093 0 0 0 -60.83902,60.327168 60.838136,60.326093 0 0 0 2.19015,15.71039 25.3604,24.211149 0 0 0 -5.47742,14.93955 25.3604,24.211149 0 0 0 25.36216,24.21203 25.3604,24.211149 0 0 0 9.75578,-1.94137 60.838136,60.326093 0 0 0 29.00835,7.40452 60.838136,60.326093 0 0 0 37.47326,-12.83912 42.898707,43.769348 0 0 0 35.39326,19.19954 42.898707,43.769348 0 0 0 42.1146,-35.4748 60.838136,60.326093 0 0 0 35.57066,-54.81303 60.838136,60.326093 0 0 0 -60.83901,-60.32716 z" />
          <path
             id="path1007"
             style="fill:#000000;fill-opacity:0.196078;fill-rule:evenodd;stroke:none;stroke-width:1.0441;stroke-miterlimit:4;stroke-dasharray:none"
             d="m 796.01309,97.968941 c -3.49032,24.670509 -32.83719,43.458789 -67.89075,43.464589 -16.46701,-0.013 -32.37205,-4.23704 -44.78195,-11.89291 -8.31056,18.99476 -26.90297,31.26131 -47.4452,31.30251 -22.64486,-0.044 -42.65727,-13.76835 -49.47836,-35.60125 -0.45365,2.88881 -0.69492,4.6727 -0.72189,7.59621 0.0297,5.30955 0.76603,10.59199 2.19015,15.71039 -3.52748,4.25334 -5.45641,9.51448 -5.47742,14.93955 -5.3e-4,13.37245 11.35495,24.21295 25.36217,24.21203 3.35441,-0.0247 6.67034,-0.68464 9.75577,-1.94137 8.89599,4.82686 18.86767,7.37219 29.00835,7.40453 13.58647,-0.0105 26.77839,-4.5304 37.47326,-12.83913 7.96162,11.97593 21.21018,19.16278 35.39326,19.19954 20.55516,-0.003 38.21927,-14.88249 42.1146,-35.4748 21.64761,-9.80029 35.5454,-31.21623 35.57066,-54.81303 0,-3.78066 -0.35985,-7.55286 -1.07265,-11.266859 z" />
          <path
             id="path1023"
             style="fill:#000000;fill-opacity:0.196078;fill-rule:evenodd;stroke:none;stroke-width:1.0441;stroke-miterlimit:4;stroke-dasharray:none"
             d="m 641.66151,112.6205 a 6.2240852,6.9560532 0 0 1 -6.22409,6.95605 6.2240852,6.9560532 0 0 1 -6.22408,-6.95605 6.2240852,6.9560532 0 0 1 6.22408,-6.95606 6.2240852,6.9560532 0 0 1 6.22409,6.95606 z" />
          <path
             id="path1025"
             style="fill:#000000;fill-opacity:0.196078;fill-rule:evenodd;stroke:none;stroke-width:1.0441;stroke-miterlimit:4;stroke-dasharray:none"
             d="m 695.48053,90.353404 a 4.2744955,4.421567 0 0 1 -4.2745,4.421571 4.2744955,4.421567 0 0 1 -4.27449,-4.421571 4.2744955,4.421567 0 0 1 4.27449,-4.421571 4.2744955,4.421567 0 0 1 4.2745,4.421571 z" />
          <path
             id="path1027"
             style="fill:#000000;fill-opacity:0.196078;fill-rule:evenodd;stroke:none;stroke-width:1.0441;stroke-miterlimit:4;stroke-dasharray:none"
             d="m 725.95251,121.97511 a 3.7716358,3.9468723 0 0 1 -3.77164,3.94687 3.7716358,3.9468723 0 0 1 -3.77163,-3.94687 3.7716358,3.9468723 0 0 1 3.77163,-3.94687 3.7716358,3.9468723 0 0 1 3.77164,3.94687 z" />
          <path
             id="path1029"
             style="fill:#000000;fill-opacity:0.196078;fill-rule:evenodd;stroke:none;stroke-width:1.0441;stroke-miterlimit:4;stroke-dasharray:none"
             d="m 751.89007,75.554111 a 5.5080831,5.482444 0 0 1 -5.50809,5.482446 5.5080831,5.482444 0 0 1 -5.50809,-5.482446 5.5080831,5.482444 0 0 1 5.50809,-5.482437 5.5080831,5.482444 0 0 1 5.50809,5.482437 z" />
          <g
             id="g839">
            <path
               id="rect1039"
               style="fill:#000000;fill-opacity:0.102478;fill-rule:evenodd;stroke:none;stroke-width:1.0441;stroke-miterlimit:4;stroke-dasharray:none"
               d="m 682.20891,161.31918 c -4.42104,6.58327 -10.88665,11.5342 -18.64486,15.45345 1.9271,3.7993 5.50827,7.14714 8.76471,10.68371 4.57008,-2.14651 8.28175,-4.36495 11.67878,-7.13134 1.7165,2.30267 3.46984,4.59454 5.53796,6.79409 3.33367,-2.62989 6.24753,-4.78437 11.12678,-6.79817 -8.59414,-6.40745 -12.3233,-12.66822 -18.46337,-19.00174 z"
               sodipodi:nodetypes="ccccccc" />
            <path
               id="path902-9"
               style="fill:#87602f;fill-opacity:0.999991;stroke:none;stroke-width:1.0441px;stroke-linecap:butt;stroke-linejoin:miter;stroke-opacity:1"
               d="m 680.66113,167.44581 c -3.57512,3.06601 -7.26311,6.00028 -11.69714,8.07747 0.29349,8.16025 0.83679,16.3121 0.68866,24.70114 0,0 0.12867,41.65954 0,64 -0.13614,23.63678 2.25844,41.1659 0.65523,64 h 30.61322 c -2.60547,-7.46692 -9.08751,-37.77595 -9.26845,-64 -0.137,-19.85565 0.0832,-38.54332 0,-64 -0.008,-2.31397 0.10583,-4.61984 0.19239,-6.91803 0.55039,-6.39623 2.07462,-10.06683 2.97667,-14.90573 -5.60689,-3.67611 -10.56052,-7.33386 -14.16056,-10.95485 z"
               sodipodi:nodetypes="scssccssccss" />
            <path
               id="path902-9-3"
               style="fill:#000000;fill-opacity:0.196078;stroke:none;stroke-width:1.0441px;stroke-linecap:butt;stroke-linejoin:miter;stroke-opacity:1"
               d="m 119.00781,159.2207 c -3.57512,3.06601 -7.26323,6.00094 -11.69726,8.07813 0.17756,4.93713 0.43198,9.8779 0.58398,14.86328 l 8.61914,-5.41797 L 124,182.43945 V 256 c -0.50804,26.39526 4.76215,53.05277 8.09766,64 h 7.16992 c -2.60547,-7.46692 -9.08664,-37.77595 -9.26758,-64 -0.137,-19.85565 0.0832,-38.54332 0,-64 -0.008,-2.31397 0.1068,-4.61978 0.19336,-6.91797 0.55039,-6.39623 2.07451,-10.06735 2.97656,-14.90625 -5.60689,-3.67611 -10.56207,-7.33409 -14.16211,-10.95508 z"
               transform="translate(561.65265,8.2244186)"
               sodipodi:nodetypes="ccccccccscccc" />
          </g>
        </g>
      </g>
    </g>
  </g>
</svg>

<?xml version="1.0" encoding="UTF-8" standalone="no"?>
<svg
   width="256"
   height="320"
   viewBox="0 0 256 320"
   version="1.1"
   id="SVGRoot"
   sodipodi:docname="tree_simple.svg"
   inkscape:version="1.1-dev (cef4a25b16, 2020-10-10)"
   xmlns:inkscape="http://www.inkscape.org/namespaces/inkscape"
   xmlns:sodipodi="http://sodipodi.sourceforge.net/DTD/sodipodi-0.dtd"
   xmlns="http://www.w3.org/2000/svg"
   xmlns:svg="http://www.w3.org/2000/svg">
  <defs
     id="defs823" />
  <sodipodi:namedview
     id="base"
     pagecolor="#ffffff"
     bordercolor="#666666"
     borderopacity="1.0"
     inkscape:pageopacity="0.0"
     inkscape:pageshadow="2"
     inkscape:zoom="1.979899"
     inkscape:cx="185.11045"
     inkscape:cy="261.37697"
     inkscape:document-units="px"
     inkscape:current-layer="layer1"
     showgrid="true"
     inkscape:window-width="1920"
     inkscape:window-height="2105"
     inkscape:window-x="1920"
     inkscape:window-y="27"
     inkscape:window-maximized="0"
     inkscape:snap-page="true"
     showguides="true"
     inkscape:guide-bbox="true"
     inkscape:snap-smooth-nodes="true"
     inkscape:snap-global="true"
     inkscape:snap-grids="false"
     inkscape:snap-to-guides="true">
    <inkscape:grid
       type="xygrid"
       id="grid831"
       spacingx="64"
       spacingy="64"
       dotted="false"
       color="#3f3fff"
       opacity="0.30196078"
       empcolor="#ff3f3f"
       empopacity="0.25098039"
       empspacing="10"
       enabled="true" />
    <sodipodi:guide
       position="108.00000,320"
       orientation="1,0"
       id="guide834" />
    <sodipodi:guide
       position="130.00000,320"
       orientation="1,0"
       id="guide836" />
    <sodipodi:guide
       position="124.00000,320"
       orientation="1,0"
       id="guide869" />
  </sodipodi:namedview>
  <g
     inkscape:label="Layer 1"
     inkscape:groupmode="layer"
     id="layer1"
     transform="translate(-561.65265,-8.2244186)">
    <g
       id="g855">
      <path
         id="path939"
         style="fill:#8fb45b;fill-opacity:1;fill-rule:evenodd;stroke:none;stroke-width:0.935057;stroke-miterlimit:4;stroke-dasharray:none"
         d="m 736.24673,48.908621 a 60.838136,60.326093 0 0 0 -47.73072,22.943603 20.873311,20.59162 0 0 0 -19.77665,-14.311462 20.873311,20.59162 0 0 0 -19.99078,15.01297 60.838136,60.326093 0 0 0 -2.21462,-0.04281 60.838136,60.326093 0 0 0 -60.83902,60.327168 60.838136,60.326093 0 0 0 2.19015,15.71039 25.3604,24.211149 0 0 0 -5.47742,14.93955 25.3604,24.211149 0 0 0 25.36216,24.21203 25.3604,24.211149 0 0 0 9.75578,-1.94137 60.838136,60.326093 0 0 0 29.00835,7.40452 60.838136,60.326093 0 0 0 37.47326,-12.83912 42.898707,43.769348 0 0 0 35.39326,19.19954 42.898707,43.769348 0 0 0 42.1146,-35.4748 60.838136,60.326093 0 0 0 35.57066,-54.81303 60.838136,60.326093 0 0 0 -60.83901,-60.32716 z" />
      <path
         id="path1007"
         style="fill:#000000;fill-opacity:0.196078;fill-rule:evenodd;stroke:none;stroke-width:1.0441;stroke-miterlimit:4;stroke-dasharray:none"
         d="m 796.01309,97.968941 c -3.49032,24.670509 -32.83719,43.458789 -67.89075,43.464589 -16.46701,-0.013 -32.37205,-4.23704 -44.78195,-11.89291 -8.31056,18.99476 -26.90297,31.26131 -47.4452,31.30251 -22.64486,-0.044 -42.65727,-13.76835 -49.47836,-35.60125 -0.45365,2.88881 -0.69492,4.6727 -0.72189,7.59621 0.0297,5.30955 0.76603,10.59199 2.19015,15.71039 -3.52748,4.25334 -5.45641,9.51448 -5.47742,14.93955 -5.3e-4,13.37245 11.35495,24.21295 25.36217,24.21203 3.35441,-0.0247 6.67034,-0.68464 9.75577,-1.94137 8.89599,4.82686 18.86767,7.37219 29.00835,7.40453 13.58647,-0.0105 26.77839,-4.5304 37.47326,-12.83913 7.96162,11.97593 21.21018,19.16278 35.39326,19.19954 20.55516,-0.003 38.21927,-14.88249 42.1146,-35.4748 21.64761,-9.80029 35.5454,-31.21623 35.57066,-54.81303 0,-3.78066 -0.35985,-7.55286 -1.07265,-11.266859 z" />
      <path
         id="path1023"
         style="fill:#000000;fill-opacity:0.196078;fill-rule:evenodd;stroke:none;stroke-width:1.0441;stroke-miterlimit:4;stroke-dasharray:none"
         d="m 641.66151,112.6205 a 6.2240852,6.9560532 0 0 1 -6.22409,6.95605 6.2240852,6.9560532 0 0 1 -6.22408,-6.95605 6.2240852,6.9560532 0 0 1 6.22408,-6.95606 6.2240852,6.9560532 0 0 1 6.22409,6.95606 z" />
      <path
         id="path1025"
         style="fill:#000000;fill-opacity:0.196078;fill-rule:evenodd;stroke:none;stroke-width:1.0441;stroke-miterlimit:4;stroke-dasharray:none"
         d="m 695.48053,90.353404 a 4.2744955,4.421567 0 0 1 -4.2745,4.421571 4.2744955,4.421567 0 0 1 -4.27449,-4.421571 4.2744955,4.421567 0 0 1 4.27449,-4.421571 4.2744955,4.421567 0 0 1 4.2745,4.421571 z" />
      <path
         id="path1027"
         style="fill:#000000;fill-opacity:0.196078;fill-rule:evenodd;stroke:none;stroke-width:1.0441;stroke-miterlimit:4;stroke-dasharray:none"
         d="m 725.95251,121.97511 a 3.7716358,3.9468723 0 0 1 -3.77164,3.94687 3.7716358,3.9468723 0 0 1 -3.77163,-3.94687 3.7716358,3.9468723 0 0 1 3.77163,-3.94687 3.7716358,3.9468723 0 0 1 3.77164,3.94687 z" />
      <path
         id="path1029"
         style="fill:#000000;fill-opacity:0.196078;fill-rule:evenodd;stroke:none;stroke-width:1.0441;stroke-miterlimit:4;stroke-dasharray:none"
         d="m 751.89007,75.554111 a 5.5080831,5.482444 0 0 1 -5.50809,5.482446 5.5080831,5.482444 0 0 1 -5.50809,-5.482446 5.5080831,5.482444 0 0 1 5.50809,-5.482437 5.5080831,5.482444 0 0 1 5.50809,5.482437 z" />
      <g
         id="g843">
        <path
           id="rect1039"
           style="fill:#000000;fill-opacity:0.102478;fill-rule:evenodd;stroke:none;stroke-width:1.0441;stroke-miterlimit:4;stroke-dasharray:none"
           d="m 682.20891,161.31918 c -4.42104,6.58327 -10.88665,11.5342 -18.64486,15.45345 1.9271,3.7993 5.50827,7.14714 8.76471,10.68371 4.57008,-2.14651 8.28175,-4.36495 11.67878,-7.13134 1.7165,2.30267 3.46984,4.59454 5.53796,6.79409 3.33367,-2.62989 6.24753,-4.78437 11.12678,-6.79817 -8.59414,-6.40745 -12.3233,-12.66822 -18.46337,-19.00174 z"
           sodipodi:nodetypes="ccccccc" />
        <path
           id="path902-9"
           style="fill:#87602f;fill-opacity:0.999991;stroke:none;stroke-width:1.0441px;stroke-linecap:butt;stroke-linejoin:miter;stroke-opacity:1"
           d="m 680.66113,167.44581 c -3.57512,3.06601 -7.26311,6.00028 -11.69714,8.07747 0.29349,8.16025 0.83679,16.3121 0.68866,24.70114 0,0 0.12867,41.65954 0,64 -0.13614,23.63678 2.25844,41.1659 0.65523,64 h 30.61322 c -2.60547,-7.46692 -9.08751,-37.77595 -9.26845,-64 -0.137,-19.85565 0.0832,-38.54332 0,-64 -0.008,-2.31397 0.10583,-4.61984 0.19239,-6.91803 0.55039,-6.39623 2.07462,-10.06683 2.97667,-14.90573 -5.60689,-3.67611 -10.56052,-7.33386 -14.16056,-10.95485 z"
           sodipodi:nodetypes="scssccssccss" />
        <path
           id="path902-9-3"
           style="fill:#000000;fill-opacity:0.196078;stroke:none;stroke-width:1.0441px;stroke-linecap:butt;stroke-linejoin:miter;stroke-opacity:1"
           d="M 119.00781 159.2207 C 115.43269 162.28671 111.74458 165.22164 107.31055 167.29883 C 107.48811 172.23596 107.74253 177.17673 107.89453 182.16211 L 116.51367 176.74414 L 124 182.43945 L 124 268.89062 C 125.86399 297.48732 128.94602 309.22342 132.09766 320 L 139.26758 320 C 136.66211 312.53308 130.18094 282.22405 130 256 C 129.863 236.14435 130.0832 217.45668 130 192 C 129.992 189.68603 130.1068 187.38022 130.19336 185.08203 C 130.74375 178.6858 132.26787 175.01468 133.16992 170.17578 C 127.56303 166.49967 122.60785 162.84169 119.00781 159.2207 z "
           transform="translate(561.65265,8.2244186)" />
      </g>
    </g>
  </g>
</svg>
